lib/img/icons/ui/calendar.svg

<?xml version="1.0" encoding="utf-8"?>
<!-- Generated by IcoMoon.io -->
<!DOCTYPE svg PUBLIC "-//W3C//DTD SVG 1.1//EN" "http://www.w3.org/Graphics/SVG/1.1/DTD/svg11.dtd">
<svg version="1.1" xmlns="http://www.w3.org/2000/svg" xmlns:xlink="http://www.w3.org/1999/xlink" width="32" height="32" viewBox="0 0 32 32">
<path fill="rgb(0, 0, 0)" d="M2 32h26v-20h-26v20zM22 14h4v4h-4v-4zM22 20h4v4h-4v-4zM22 26h4v4h-4v-4zM16 14h4v4h-4v-4zM16 20h4v4h-4v-4zM16 26h4v4h-4v-4zM10 14h4v4h-4v-4zM10 20h4v4h-4v-4zM10 26h4v4h-4v-4zM4 14h4v4h-4v-4zM4 20h4v4h-4v-4zM4 26h4v4h-4v-4zM28 2v8h-26v-8h4v4h6v-4h6v4h6v-4h4zM10 4h-2v-4h2v4zM22 4h-2v-4h2v4z"></path>
</svg>

<svg xmlns="http://www.w3.org/2000/svg" width="32" height="32" viewBox="0 0 32 32" class="svg-icon">
    <path d="M2 32h26V12H2v20zm20-18h4v4h-4v-4zm0 6h4v4h-4v-4zm0 6h4v4h-4v-4zm-6-12h4v4h-4v-4zm0 6h4v4h-4v-4zm0 6h4v4h-4v-4zm-6-12h4v4h-4v-4zm0 6h4v4h-4v-4zm0 6h4v4h-4v-4zM4 14h4v4H4v-4zm0 6h4v4H4v-4zm0 6h4v4H4v-4zM28 2v8H2V2h4v4h6V2h6v4h6V2h4zM10 4H8V0h2v4zm12 0h-2V0h2v4z"/>
</svg>
